X: 75
T: 71. JOHNNY GET YOUR HAIR CUT
B: Sam Bayard, "Hill Country Tunes" 1944 #71
S: Played by Mrs Sarah Armstrong, (near) Derry, PA, Nov 18, 1943.
Z: 2010 John Chambers <jc:trillian.mit.edu>
N: The first part of this tune, unaccompanied by any other strain,
N: has been sung in southwestern Pennsylvania to the jingles
N:    Johnny get your hair cut, hair cut, hair cut,
N:    Johnny get your hair cut, just like me!
N: and
N:    Granny will your dog bite, etc. -- No, child, no!
N: These little refrains are current all over the country, often to
N: entirely different strains of music.
R: reel, polka
M: C
L: 1/8
K: D
A2 | dfed B2A2 | B2A2 F2A2 | dfed B2AA | B2c2 d2 :| z2 |
d2f2 a3a | b2a2 f2e2 | defg a2a2 | b2a2 f3z |
d2f2 a3a | b2a2 f2e2 | dfed B2A2 | B2c2 d4 ||
D2FG A2Bc | d3d F2B2 | A3A E2B2 | A3A F2E2 |
DEFG A2Bc | d2d2 F2B2 | A3A E2FE | D4 D2 |]

%%sep 2 1 500
%%sep 1 1 500

